X:386
T: STEH ICH AN MEINEM FENSTERLEIN
N: B0461
O: Europa, Mitteleuropa, Deutschland, Rheinland
R: Liebes - Lied, Leid, Klage
M: 3/4
L: 1/8
K: C
G,E,F, | G,3A,G,G, | ^F,2z
G,G,G, | E3DDC | G,2z
CCB, | A,3A,A,C | G,2z2
G,2 | F,2G,2B,D | C2z

